src/assets/img/VK.svg

<svg width="21" height="12" viewBox="0 0 21 12" fill="none" xmlns="http://www.w3.org/2000/svg">
<path d="M20.578 10.5667C20.5222 10.4733 20.177 9.72313 18.5158 8.18136C16.7768 6.56691 17.0104 6.82907 19.105 4.03753C20.3807 2.33742 20.8908 1.2992 20.7311 0.855352C20.5793 0.432273 19.641 0.543883 19.641 0.543883L16.5211 0.562052C16.5211 0.562052 16.2901 0.530905 16.1175 0.63343C15.9501 0.734658 15.8424 0.968259 15.8424 0.968259C15.8424 0.968259 15.3479 2.28422 14.6886 3.40291C13.2987 5.76358 12.742 5.88817 12.5149 5.74152C11.9867 5.4002 12.119 4.36846 12.119 3.63651C12.119 1.34851 12.4655 0.394637 11.4429 0.148058C11.1029 0.0662971 10.8537 0.01179 9.98546 0.00270551C8.87196 -0.00897457 7.92847 0.00659887 7.39508 0.267454C7.03949 0.441358 6.76565 0.829396 6.93307 0.851459C7.13942 0.878712 7.60662 0.977344 7.8545 1.31477C8.17505 1.74953 8.16337 2.72806 8.16337 2.72806C8.16337 2.72806 8.34766 5.42097 7.7338 5.7558C7.31202 5.9855 6.73451 5.517 5.49512 3.37436C4.8605 2.27773 4.38032 1.0643 4.38032 1.0643C4.38032 1.0643 4.28818 0.838481 4.12336 0.717786C3.9235 0.571136 3.64318 0.524416 3.64318 0.524416L0.676437 0.542585C0.676437 0.542585 0.231296 0.555563 0.0677747 0.748934C-0.0775775 0.921539 0.0560946 1.27713 0.0560946 1.27713C0.0560946 1.27713 2.37913 6.71097 5.00845 9.4506C7.42104 11.9618 10.1594 11.797 10.1594 11.797H11.4001C11.4001 11.797 11.7751 11.7555 11.9659 11.5491C12.1424 11.3596 12.1359 11.004 12.1359 11.004C12.1359 11.004 12.1112 9.33899 12.8847 9.09371C13.6465 8.85232 14.6251 10.703 15.662 11.4154C16.4459 11.954 17.0415 11.8359 17.0415 11.8359L19.8149 11.797C19.8149 11.797 21.2658 11.7074 20.578 10.5667Z" fill="#202020"/>
</svg>

<svg xmlns="http://www.w3.org/2000/svg" fill="none" viewBox="0 0 21 12"><path fill="#202020" d="M20.578 10.567c-.056-.094-.401-.844-2.062-2.386-1.74-1.614-1.506-1.352.589-4.143 1.276-1.7 1.786-2.739 1.626-3.183-.152-.423-1.09-.311-1.09-.311l-3.12.018s-.23-.031-.404.071c-.167.102-.275.335-.275.335s-.494 1.316-1.153 2.435c-1.39 2.36-1.947 2.485-2.174 2.339-.528-.342-.396-1.374-.396-2.105 0-2.288.347-3.242-.676-3.489-.34-.082-.59-.136-1.458-.145-1.113-.012-2.057.004-2.59.264-.356.174-.63.562-.462.584.206.028.674.126.921.464.321.435.31 1.413.31 1.413s.184 2.693-.43 3.028c-.422.23-1-.239-2.239-2.382-.635-1.096-1.115-2.31-1.115-2.31S4.288.838 4.123.718c-.2-.147-.48-.194-.48-.194L.676.543S.231.556.068.749c-.146.173-.012.528-.012.528S2.38 6.711 5.008 9.451c2.413 2.51 5.151 2.346 5.151 2.346H11.4s.375-.042.566-.248c.176-.19.17-.545.17-.545s-.025-1.665.749-1.91c.761-.242 1.74 1.609 2.777 2.321.784.539 1.38.42 1.38.42l2.773-.038s1.45-.09.763-1.23z"/></svg>
